X: 320
T: A Pound A Week Rise
R: reel
M: 4/4
K: Fdorian
|:c4 B4|AGFE CF F2|E3 F ECB,C|EFAB ccBA:|
GAFE3 EC|B,2 B,C EG3|GAFE3 CB,|A,2 CB, A,4|
GAFE3 EC|B,2 B,C EG3|GAFE3 CB,|A,2 FECE F2||

